Newaita/actions/32/view-certificate-sign.svg

<svg height="32" viewBox="0 0 32 32" width="32" xmlns="http://www.w3.org/2000/svg"><g fill="#424242"><path d="m5.292969 5.542969c-1.464844 0-2.648438 1.179687-2.648438 2.644531v15.878906c0 1.464844 1.183594 2.644532 2.648438 2.644532h10.761719c-.113282-.195313-.179688-.421876-.179688-.660157v-1.984375h-9.261719c-.730469 0-1.320312-.589844-1.320312-1.324218v-13.230469c0-.734375.589843-1.324219 1.320312-1.324219h18.523438c.734375 0 1.324219.589844 1.324219 1.324219v2.644531h2.644531v-3.96875c0-1.464844-1.179688-2.644531-2.644531-2.644531zm0 0"/><path d="m11.851562 11.496094c-1.433593 0-2.589843 1.179687-2.589843 2.644531v1.984375c-.734375 0-1.324219.589844-1.324219 1.324219v1.984375c0 .734375.589844 1.324218 1.324219 1.324218h5.292969c.730468 0 1.320312-.589843 1.320312-1.324218v-1.984375c0-.734375-.589844-1.324219-1.320312-1.324219v-1.984375c0-1.464844-1.15625-2.644531-2.59375-2.644531zm.054688 1.324218c.734375 0 1.324219.589844 1.324219 1.320313v1.984375h-2.644531v-1.984375c0-.730469.589843-1.320313 1.320312-1.320313zm0 0"/><path d="m16.207031 10.835938h7.277344c.183594 0 .332031.148437.332031.328124v.664063c0 .179687-.148437.328125-.332031.328125h-7.277344c-.183593 0-.332031-.148438-.332031-.328125v-.664063c0-.179687.148438-.328124.332031-.328124zm0 0"/><path d="m18.851562 14.804688h3.308594c.183594 0 .332032.148437.332032.328124v.664063c0 .179687-.148438.328125-.332032.328125h-3.308594c-.179687 0-.328124-.148438-.328124-.328125v-.664063c0-.179687.148437-.328124.328124-.328124zm0 0"/><path d="m27.785156 15.738281c-.519531-.519531-1.351562-.519531-1.871094 0l-5.015624 5.019531c-.054688.027344-.101563.066407-.144532.109376l2.839844 2.839843c.042969-.042969.082031-.09375.109375-.144531l5.019531-5.015625c.515625-.519531.515625-1.355469 0-1.871094zm-7.96875 6.0625-.46875.46875c-.0625.0625-.109375.136719-.144531.214844l-1.402344 3.273437c-.246093.570313.332031 1.144532.898438.902344l3.277343-1.402344c.078126-.035156.152344-.085937.214844-.144531l.464844-.46875zm0 0"/></g></svg>

<?xml version="1.0" encoding="UTF-8"?>
<svg xmlns="http://www.w3.org/2000/svg" xmlns:xlink="http://www.w3.org/1999/xlink" width="32px" height="32px" viewBox="0 0 32 32" version="1.1">
<g id="surface1">
<path style=" stroke:none;fill-rule:nonzero;fill:rgb(25.882354%,25.882354%,25.882354%);fill-opacity:1;" d="M 5.292969 5.542969 C 3.828125 5.542969 2.644531 6.722656 2.644531 8.1875 L 2.644531 24.066406 C 2.644531 25.53125 3.828125 26.710938 5.292969 26.710938 L 16.054688 26.710938 C 15.941406 26.515625 15.875 26.289062 15.875 26.050781 L 15.875 24.066406 L 6.613281 24.066406 C 5.882812 24.066406 5.292969 23.476562 5.292969 22.742188 L 5.292969 9.511719 C 5.292969 8.777344 5.882812 8.1875 6.613281 8.1875 L 25.136719 8.1875 C 25.871094 8.1875 26.460938 8.777344 26.460938 9.511719 L 26.460938 12.15625 L 29.105469 12.15625 L 29.105469 8.1875 C 29.105469 6.722656 27.925781 5.542969 26.460938 5.542969 Z M 5.292969 5.542969 "/>
<path style=" stroke:none;fill-rule:nonzero;fill:rgb(25.882354%,25.882354%,25.882354%);fill-opacity:1;" d="M 11.851562 11.496094 C 10.417969 11.496094 9.261719 12.675781 9.261719 14.140625 L 9.261719 16.125 C 8.527344 16.125 7.9375 16.714844 7.9375 17.449219 L 7.9375 19.433594 C 7.9375 20.167969 8.527344 20.757812 9.261719 20.757812 L 14.554688 20.757812 C 15.285156 20.757812 15.875 20.167969 15.875 19.433594 L 15.875 17.449219 C 15.875 16.714844 15.285156 16.125 14.554688 16.125 L 14.554688 14.140625 C 14.554688 12.675781 13.398438 11.496094 11.960938 11.496094 Z M 11.90625 12.820312 C 12.640625 12.820312 13.230469 13.410156 13.230469 14.140625 L 13.230469 16.125 L 10.585938 16.125 L 10.585938 14.140625 C 10.585938 13.410156 11.175781 12.820312 11.90625 12.820312 Z M 11.90625 12.820312 "/>
<path style=" stroke:none;fill-rule:nonzero;fill:rgb(25.882354%,25.882354%,25.882354%);fill-opacity:1;" d="M 16.207031 10.835938 L 23.484375 10.835938 C 23.667969 10.835938 23.816406 10.984375 23.816406 11.164062 L 23.816406 11.828125 C 23.816406 12.007812 23.667969 12.15625 23.484375 12.15625 L 16.207031 12.15625 C 16.023438 12.15625 15.875 12.007812 15.875 11.828125 L 15.875 11.164062 C 15.875 10.984375 16.023438 10.835938 16.207031 10.835938 Z M 16.207031 10.835938 "/>
<path style=" stroke:none;fill-rule:nonzero;fill:rgb(25.882354%,25.882354%,25.882354%);fill-opacity:1;" d="M 18.851562 14.804688 L 22.160156 14.804688 C 22.34375 14.804688 22.492188 14.953125 22.492188 15.132812 L 22.492188 15.796875 C 22.492188 15.976562 22.34375 16.125 22.160156 16.125 L 18.851562 16.125 C 18.671875 16.125 18.523438 15.976562 18.523438 15.796875 L 18.523438 15.132812 C 18.523438 14.953125 18.671875 14.804688 18.851562 14.804688 Z M 18.851562 14.804688 "/>
<path style=" stroke:none;fill-rule:nonzero;fill:rgb(25.882354%,25.882354%,25.882354%);fill-opacity:1;" d="M 27.785156 15.738281 C 27.265625 15.21875 26.433594 15.21875 25.914062 15.738281 L 20.898438 20.757812 C 20.84375 20.785156 20.796875 20.824219 20.753906 20.867188 L 23.59375 23.707031 C 23.636719 23.664062 23.675781 23.613281 23.703125 23.5625 L 28.722656 18.546875 C 29.238281 18.027344 29.238281 17.191406 28.722656 16.675781 Z M 19.816406 21.800781 L 19.347656 22.269531 C 19.285156 22.332031 19.238281 22.40625 19.203125 22.484375 L 17.800781 25.757812 C 17.554688 26.328125 18.132812 26.902344 18.699219 26.660156 L 21.976562 25.257812 C 22.054688 25.222656 22.128906 25.171875 22.191406 25.113281 L 22.65625 24.644531 Z M 19.816406 21.800781 "/>
</g>
</svg>
